X: 9
T:Tatter Jack Walsh
M:6/8
L:1/8
R:Double Jig
K:DMix
e[|:~f3 ded|cAB c2A|dcA GFG|Ade fag|!
faf ded|cAB c2e|dcA GFG|1Ad^c d2e:|2Ad^c d2A|!
|:dfa afe|dfa a2f|gag ged|cde gag|!
~f3 ded|cAB c2e|dcA GFG|1Ad^c d2A:|2Ad^c d2e|]!
